X: 1374
T: An Sean Veist 's An Carbhat
R: hornpipe
M: 4/4
K: Dminor
|F>G|A>B G>A F>GA>=B|c>=B cd f2 ef|d>f ed cAGE|D2 D2 D2 F>G|
A>B GA FGA=B|c=Bcd f2 ef|d>f ed cAGE|{E}D2 D2 D2|
F>G|A>d de f2 ed|d^cAG A3G|A>d de f2 ed|d^cec d3c|
A>d d^c d>efg|fdcA cdef|d>f ed cAGE|D2 D2 D2||

